src/assets/html.svg

<?xml version="1.0" encoding="UTF-8"?>
<svg class="" width="512px" height="512px" enable-background="new 0 0 434.147 434.147" version="1.1" viewBox="0 0 434.15 434.15" xml:space="preserve" xmlns="http://www.w3.org/2000/svg"><path class="active-path" d="m27.336 14.372 28.177 360.47c0.423 5.413 4.087 10.029 9.263 11.67l148.27 47.008c2.622 0.831 5.437 0.831 8.059 0l148.27-47.008c5.176-1.641 8.84-6.257 9.263-11.67l28.177-360.47c0.606-7.75-5.519-14.372-13.292-14.372h-352.89c-7.773 0-13.898 6.622-13.293 14.372zm307.22 111.84h-183.64l5.542 51.105h174.1l-11.389 145.69-102.1 32.369-102.1-32.369-5.95-76.116h53.588v37.336l55.89 15 55.556-15 4.31-59.503h-171.08l-11.358-145.31h242.27l-3.657 46.796z" fill="#fff" data-old_color="#FC490B" data-original="#FC490B"/> </svg>

<?xml version="1.0"?>
<svg xmlns="http://www.w3.org/2000/svg" xmlns:xlink="http://www.w3.org/1999/xlink" version="1.1" id="Layer_1" x="0px" y="0px" viewBox="0 0 434.147 434.147" style="enable-background:new 0 0 434.147 434.147;" xml:space="preserve" width="512px" height="512px" class=""><g><path d="M27.336,14.372l28.177,360.474c0.423,5.413,4.087,10.029,9.263,11.67l148.268,47.008  c2.622,0.831,5.437,0.831,8.059,0l148.268-47.008c5.176-1.641,8.84-6.257,9.263-11.67l28.177-360.474  C407.417,6.622,401.292,0,393.519,0H40.629C32.856,0,26.731,6.622,27.336,14.372z M334.553,126.215H150.918l5.542,51.105h174.099  L319.17,323.013l-102.096,32.369l-102.096-32.369l-5.95-76.116h53.588v37.336l55.89,15l55.556-15l4.31-59.503H107.295L95.937,79.419  H338.21L334.553,126.215z" data-original="#FC490B" class="active-path" data-old_color="#FC490B" fill="#FFFFFF"/></g> </svg>
